components/Common/Svg/svgs/instagram.svg

<svg width="24" height="24" viewBox="0 0 24 24" fill="none" xmlns="http://www.w3.org/2000/svg">
<circle cx="12" cy="12" r="12" fill="#171717"/>
<path d="M15.75 12C15.75 12.9946 15.3549 13.9484 14.6517 14.6517C13.9484 15.3549 12.9946 15.75 12 15.75C11.0054 15.75 10.0516 15.3549 9.34835 14.6517C8.64509 13.9484 8.25 12.9946 8.25 12C8.25 11.7862 8.2725 11.5775 8.31125 11.375H7V16.3713C7 16.7188 7.28125 17 7.62875 17H16.3725C16.539 16.9997 16.6986 16.9333 16.8163 16.8154C16.9339 16.6975 17 16.5378 17 16.3713V11.375H15.6888C15.7275 11.5775 15.75 11.7862 15.75 12ZM12 14.5C12.3284 14.4999 12.6535 14.4352 12.9569 14.3094C13.2603 14.1837 13.5359 13.9994 13.768 13.7671C14.0002 13.5349 14.1843 13.2592 14.3099 12.9557C14.4355 12.6523 14.5001 12.3271 14.5 11.9988C14.4999 11.6704 14.4352 11.3452 14.3094 11.0419C14.1837 10.7385 13.9994 10.4629 13.7671 10.2307C13.5349 9.99858 13.2592 9.81445 12.9557 9.68886C12.6523 9.56327 12.3271 9.49867 11.9987 9.49875C11.3355 9.49892 10.6996 9.76253 10.2307 10.2316C9.76188 10.7007 9.49858 11.3368 9.49875 12C9.49892 12.6632 9.76253 13.2992 10.2316 13.768C10.7007 14.2369 11.3368 14.5002 12 14.5ZM15 9.375H16.4988C16.5983 9.375 16.6938 9.33553 16.7644 9.26524C16.8349 9.19495 16.8747 9.09957 16.875 9V7.50125C16.875 7.40146 16.8354 7.30576 16.7648 7.2352C16.6942 7.16464 16.5985 7.125 16.4988 7.125H15C14.9002 7.125 14.8045 7.16464 14.734 7.2352C14.6634 7.30576 14.6238 7.40146 14.6238 7.50125V9C14.625 9.20625 14.7937 9.375 15 9.375ZM18.25 16.8612C18.25 17.625 17.625 18.25 16.8612 18.25H7.13875C6.375 18.25 5.75 17.625 5.75 16.8612V7.13875C5.75 6.375 6.375 5.75 7.13875 5.75H16.8612C17.625 5.75 18.25 6.375 18.25 7.13875V16.8612Z" fill="white"/>
</svg>

<svg xmlns="http://www.w3.org/2000/svg" width="24" height="24" fill="none">
  <circle cx="12" cy="12" r="12" fill="#171717" />
  <path fill="#fff" d="M15.75 12a3.75 3.75 0 0 1-7.5 0c0-.214.023-.422.061-.625H7v4.996c0 .348.281.629.629.629h8.743a.629.629 0 0 0 .628-.629v-4.996h-1.311c.038.203.061.411.061.625ZM12 14.5a2.5 2.5 0 1 0-.001-5 2.5 2.5 0 0 0 .001 5Zm3-5.125h1.499A.376.376 0 0 0 16.875 9V7.501a.376.376 0 0 0-.376-.376H15a.376.376 0 0 0-.376.376V9c.001.206.17.375.376.375Zm3.25 7.486c0 .764-.625 1.389-1.389 1.389H7.14a1.393 1.393 0 0 1-1.389-1.389V7.14c0-.764.625-1.389 1.389-1.389h9.722c.764 0 1.389.625 1.389 1.389v9.722Z" />
</svg>
